report_00007_2020-12-11T15:55:29.892Z/speed-index/comparison/sorted/1_vs_2.svg

<svg width="640" height="500" xmlns="http://www.w3.org/2000/svg" xmlns:xlink="http://www.w3.org/1999/xlink"><path fill="#fff" d="M0 0h640v500H0z"/><defs><path id="d" stroke-width=".222" stroke="currentColor" d="M-1-1h2v2h-2z"/><path id="b" stroke-width=".222" stroke="currentColor" d="M0-1.33l-1.33 2h2.66z"/><path id="f" stroke-width=".222" stroke="currentColor" d="M0 1.33L1.265.411.782-1.067l-1.564-.009-.483 1.487z"/><use xlink:href="#b" id="c" stroke="currentColor" transform="rotate(180)"/><use xlink:href="#d" id="e" stroke="currentColor" transform="rotate(45)"/><circle id="a" stroke-width=".222" stroke="currentColor" cx="0" cy="0" r="1"/></defs><g fill="none" color="#000" stroke="currentColor"><path stroke="#000" d="M70.5 407.4h9m535.5 0h-9"/><text transform="translate(62.2 411.3)" stroke="none" fill="#000" font-family="Arial" font-size="12" text-anchor="end"><tspan>5000</tspan></text></g><g fill="none" color="#000" stroke="currentColor"><path stroke="#000" d="M70.5 329.5h9m535.5 0h-9"/><text transform="translate(62.2 333.4)" stroke="none" fill="#000" font-family="Arial" font-size="12" text-anchor="end"><tspan>10000</tspan></text></g><g fill="none" color="#000" stroke="currentColor"><path stroke="#000" d="M70.5 251.6h9m535.5 0h-9"/><text transform="translate(62.2 255.5)" stroke="none" fill="#000" font-family="Arial" font-size="12" text-anchor="end"><tspan>15000</tspan></text></g><g fill="none" color="#000" stroke="currentColor"><path stroke="#000" d="M70.5 173.7h9m535.5 0h-9"/><text transform="translate(62.2 177.6)" stroke="none" fill="#000" font-family="Arial" font-size="12" text-anchor="end"><tspan>20000</tspan></text></g><g fill="none" color="#000" stroke="currentColor"><path stroke="#000" d="M70.5 95.7h9m535.5 0h-9"/><text transform="translate(62.2 99.6)" stroke="none" fill="#000" font-family="Arial" font-size="12" text-anchor="end"><tspan>25000</tspan></text></g><g fill="none" color="#000" stroke="currentColor"><path stroke="#000" d="M70.5 17.8h9m535.5 0h-9"/><text transform="translate(62.2 21.7)" stroke="none" fill="#000" font-family="Arial" font-size="12" text-anchor="end"><tspan>30000</tspan></text></g><g fill="none" color="#000" stroke="currentColor"><path stroke="#000" d="M70.5 428v-9m0-400.9v9"/><text transform="translate(70.5 449.9)" stroke="none" fill="#000" font-family="Arial" font-size="12" text-anchor="middle"><tspan>0</tspan></text></g><g fill="none" color="#000" stroke="currentColor"><path stroke="#000" d="M125.5 428v-9m0-400.9v9"/><text transform="translate(125.5 449.9)" stroke="none" fill="#000" font-family="Arial" font-size="12" text-anchor="middle"><tspan>10</tspan></text></g><g fill="none" color="#000" stroke="currentColor"><path stroke="#000" d="M180.5 428v-9m0-400.9v9"/><text transform="translate(180.5 449.9)" stroke="none" fill="#000" font-family="Arial" font-size="12" text-anchor="middle"><tspan>20</tspan></text></g><g fill="none" color="#000" stroke="currentColor"><path stroke="#000" d="M235.5 428v-9m0-400.9v9"/><text transform="translate(235.5 449.9)" stroke="none" fill="#000" font-family="Arial" font-size="12" text-anchor="middle"><tspan>30</tspan></text></g><g fill="none" color="#000" stroke="currentColor"><path stroke="#000" d="M290.5 428v-9m0-400.9v9"/><text transform="translate(290.5 449.9)" stroke="none" fill="#000" font-family="Arial" font-size="12" text-anchor="middle"><tspan>40</tspan></text></g><g fill="none" color="#000" stroke="currentColor"><path stroke="#000" d="M345.5 428v-9m0-400.9v9"/><text transform="translate(345.5 449.9)" stroke="none" fill="#000" font-family="Arial" font-size="12" text-anchor="middle"><tspan>50</tspan></text></g><g fill="none" color="#000" stroke="currentColor"><path stroke="#000" d="M400.5 428v-9m0-400.9v9"/><text transform="translate(400.5 449.9)" stroke="none" fill="#000" font-family="Arial" font-size="12" text-anchor="middle"><tspan>60</tspan></text></g><g fill="none" color="#000" stroke="currentColor"><path stroke="#000" d="M455.5 428v-9m0-400.9v9"/><text transform="translate(455.5 449.9)" stroke="none" fill="#000" font-family="Arial" font-size="12" text-anchor="middle"><tspan>70</tspan></text></g><g fill="none" color="#000" stroke="currentColor"><path stroke="#000" d="M510.5 428v-9m0-400.9v9"/><text transform="translate(510.5 449.9)" stroke="none" fill="#000" font-family="Arial" font-size="12" text-anchor="middle"><tspan>80</tspan></text></g><g fill="none" color="#000" stroke="currentColor"><path stroke="#000" d="M565.5 428v-9m0-400.9v9"/><text transform="translate(565.5 449.9)" stroke="none" fill="#000" font-family="Arial" font-size="12" text-anchor="middle"><tspan>90</tspan></text></g><path stroke="#000" d="M70.5 18.1V428H615V18.1H70.5z" fill="none" color="#000"/><text transform="translate(283.9 467.9)" stroke="none" fill="#000" font-family="Arial" font-size="12" text-anchor="end" color="#000"><tspan>pages</tspan></text><path stroke="#9400D3" d="M292.2 464h42.2M70.5 405.2H76l5.5-.1h11l5.5-.1 5.5-.1h5.5l5.5-.1 5.5-.1 5.5-.1h5.5l5.5-.2h11l5.5-.2h11l5.5-.1 5.5-.1h5.5l5.5-.2 5.5-.1 5.5-.3 5.5-.2 5.5-2.9 5.5-.1 5.5-1.2 5.5-3.7 5.5-.3 5.5-.1h5.5l5.5-.1h11l5.5-.1h5.5l5.5-.1 5.5-.2h5.5l5.5-.1h11l5.5-.1h33l5.5-.1h5.5l5.5-.1h11l5.5-.1 5.5-.2H395l5.5-.1h5.5l5.5-.1 5.5-.1 5.5-.1H450l5.5-.2 5.5-.1h5.5l5.5-.1 5.5-.5H505l5.5-.1 5.5-.3 5.5-.1h5.5l5.5-.2 5.5-.1 5.5-.5 5.5-.4 5.5-.3h5.5l5.5-.6 5.5-.1 5.5-.4 5.5-2 5.5-1.4 5.5-.7 5.5-.1 5.5-2.6 5.5-259.7L615 26" fill="none" color="#000"/><text transform="translate(283.9 485.9)" stroke="none" fill="#000" font-family="Arial" font-size="12" text-anchor="end" color="#000"><tspan>pages+cached</tspan></text><path stroke="#009E73" d="M292.2 482h42.2M70.5 420.1h11l5.5-.1h16.5l5.5-.1h22l5.5-.1h5.5l5.5-.1H175l5.5-.1H208l5.5-.1H230l5.5-.1H274l5.5-.1h5.5l5.5-.1h5.5l5.5-.1H318l5.5-.1h22l5.5-.3h5.5l5.5-.2h11l5.5-.1h11l5.5-.1h11l5.5-.1 5.5-.1h5.5l5.5-.2h11l5.5-.1 5.5-.2 5.5-.6 5.5-.1 5.5-6.7h5.5l5.5-.1 5.5-.1 5.5-.1 5.5-.1h5.5l5.5-.1h11l5.5-.4H538l5.5-.1 5.5-.1 5.5-.1h5.5l5.5-.1 5.5-.1 5.5-.1 5.5-.3h5.5l5.5-.1 5.5-.1 5.5-7.2 5.5-.1 5.5-4.4" fill="none" color="#000"/><text transform="translate(483.8 467.9)" stroke="none" fill="#000" font-family="Arial" font-size="12" text-anchor="end" color="#000"><tspan>score p10=3387</tspan></text><path stroke="#56B4E9" d="M492.1 464h42.2" fill="none" color="#000"/><g><text transform="translate(483.8 485.9)" stroke="none" fill="#000" font-family="Arial" font-size="12" text-anchor="end" color="#000"><tspan>score median=5800</tspan></text><path stroke="#E69F00" d="M492.1 482h42.2M70.5 395H615" fill="none" color="#000"/></g><g fill="none" color="#000" stroke="currentColor"><path stroke="#000" d="M70.5 18.1V428H615V18.1H70.5z"/></g></svg>

<?xml version="1.0" encoding="utf-8"  standalone="no"?>
<svg 
 width="640" height="500"
 viewBox="0 0 640 500"
 xmlns="http://www.w3.org/2000/svg"
 xmlns:xlink="http://www.w3.org/1999/xlink"
>

<title>Gnuplot</title>
<desc>Produced by GNUPLOT 5.4 patchlevel 0 </desc>

<g id="gnuplot_canvas">

<rect x="0" y="0" width="640" height="500" fill="#ffffff"/>
<defs>

	<circle id='gpDot' r='0.5' stroke-width='0.5' stroke='currentColor'/>
	<path id='gpPt0' stroke-width='0.222' stroke='currentColor' d='M-1,0 h2 M0,-1 v2'/>
	<path id='gpPt1' stroke-width='0.222' stroke='currentColor' d='M-1,-1 L1,1 M1,-1 L-1,1'/>
	<path id='gpPt2' stroke-width='0.222' stroke='currentColor' d='M-1,0 L1,0 M0,-1 L0,1 M-1,-1 L1,1 M-1,1 L1,-1'/>
	<rect id='gpPt3' stroke-width='0.222' stroke='currentColor' x='-1' y='-1' width='2' height='2'/>
	<rect id='gpPt4' stroke-width='0.222' stroke='currentColor' fill='currentColor' x='-1' y='-1' width='2' height='2'/>
	<circle id='gpPt5' stroke-width='0.222' stroke='currentColor' cx='0' cy='0' r='1'/>
	<use xlink:href='#gpPt5' id='gpPt6' fill='currentColor' stroke='none'/>
	<path id='gpPt7' stroke-width='0.222' stroke='currentColor' d='M0,-1.33 L-1.33,0.67 L1.33,0.67 z'/>
	<use xlink:href='#gpPt7' id='gpPt8' fill='currentColor' stroke='none'/>
	<use xlink:href='#gpPt7' id='gpPt9' stroke='currentColor' transform='rotate(180)'/>
	<use xlink:href='#gpPt9' id='gpPt10' fill='currentColor' stroke='none'/>
	<use xlink:href='#gpPt3' id='gpPt11' stroke='currentColor' transform='rotate(45)'/>
	<use xlink:href='#gpPt11' id='gpPt12' fill='currentColor' stroke='none'/>
	<path id='gpPt13' stroke-width='0.222' stroke='currentColor' d='M0,1.330 L1.265,0.411 L0.782,-1.067 L-0.782,-1.076 L-1.265,0.411 z'/>
	<use xlink:href='#gpPt13' id='gpPt14' fill='currentColor' stroke='none'/>
	<filter id='textbox' filterUnits='objectBoundingBox' x='0' y='0' height='1' width='1'>
	  <feFlood flood-color='#FFFFFF' flood-opacity='1' result='bgnd'/>
	  <feComposite in='SourceGraphic' in2='bgnd' operator='atop'/>
	</filter>
	<filter id='greybox' filterUnits='objectBoundingBox' x='0' y='0' height='1' width='1'>
	  <feFlood flood-color='lightgrey' flood-opacity='1' result='grey'/>
	  <feComposite in='SourceGraphic' in2='grey' operator='atop'/>
	</filter>
</defs>
<g fill="none" color="#FFFFFF" stroke="black" stroke-width="1.00" stroke-linecap="butt" stroke-linejoin="miter">
</g>
<g fill="none" color="black" stroke="currentColor" stroke-width="1.00" stroke-linecap="butt" stroke-linejoin="miter">
	<path stroke='black'  d='M70.5,407.4 L79.5,407.4 M615.0,407.4 L606.0,407.4  '/>	<g transform="translate(62.2,411.3)" stroke="none" fill="black" font-family="Arial" font-size="12.00"  text-anchor="end">
		<text><tspan font-family="Arial" > 5000</tspan></text>
	</g>
</g>
<g fill="none" color="black" stroke="currentColor" stroke-width="1.00" stroke-linecap="butt" stroke-linejoin="miter">
	<path stroke='black'  d='M70.5,329.5 L79.5,329.5 M615.0,329.5 L606.0,329.5  '/>	<g transform="translate(62.2,333.4)" stroke="none" fill="black" font-family="Arial" font-size="12.00"  text-anchor="end">
		<text><tspan font-family="Arial" > 10000</tspan></text>
	</g>
</g>
<g fill="none" color="black" stroke="currentColor" stroke-width="1.00" stroke-linecap="butt" stroke-linejoin="miter">
	<path stroke='black'  d='M70.5,251.6 L79.5,251.6 M615.0,251.6 L606.0,251.6  '/>	<g transform="translate(62.2,255.5)" stroke="none" fill="black" font-family="Arial" font-size="12.00"  text-anchor="end">
		<text><tspan font-family="Arial" > 15000</tspan></text>
	</g>
</g>
<g fill="none" color="black" stroke="currentColor" stroke-width="1.00" stroke-linecap="butt" stroke-linejoin="miter">
	<path stroke='black'  d='M70.5,173.7 L79.5,173.7 M615.0,173.7 L606.0,173.7  '/>	<g transform="translate(62.2,177.6)" stroke="none" fill="black" font-family="Arial" font-size="12.00"  text-anchor="end">
		<text><tspan font-family="Arial" > 20000</tspan></text>
	</g>
</g>
<g fill="none" color="black" stroke="currentColor" stroke-width="1.00" stroke-linecap="butt" stroke-linejoin="miter">
	<path stroke='black'  d='M70.5,95.7 L79.5,95.7 M615.0,95.7 L606.0,95.7  '/>	<g transform="translate(62.2,99.6)" stroke="none" fill="black" font-family="Arial" font-size="12.00"  text-anchor="end">
		<text><tspan font-family="Arial" > 25000</tspan></text>
	</g>
</g>
<g fill="none" color="black" stroke="currentColor" stroke-width="1.00" stroke-linecap="butt" stroke-linejoin="miter">
	<path stroke='black'  d='M70.5,17.8 L79.5,17.8 M615.0,17.8 L606.0,17.8  '/>	<g transform="translate(62.2,21.7)" stroke="none" fill="black" font-family="Arial" font-size="12.00"  text-anchor="end">
		<text><tspan font-family="Arial" > 30000</tspan></text>
	</g>
</g>
<g fill="none" color="black" stroke="currentColor" stroke-width="1.00" stroke-linecap="butt" stroke-linejoin="miter">
	<path stroke='black'  d='M70.5,428.0 L70.5,419.0 M70.5,18.1 L70.5,27.1  '/>	<g transform="translate(70.5,449.9)" stroke="none" fill="black" font-family="Arial" font-size="12.00"  text-anchor="middle">
		<text><tspan font-family="Arial" > 0</tspan></text>
	</g>
</g>
<g fill="none" color="black" stroke="currentColor" stroke-width="1.00" stroke-linecap="butt" stroke-linejoin="miter">
	<path stroke='black'  d='M125.5,428.0 L125.5,419.0 M125.5,18.1 L125.5,27.1  '/>	<g transform="translate(125.5,449.9)" stroke="none" fill="black" font-family="Arial" font-size="12.00"  text-anchor="middle">
		<text><tspan font-family="Arial" > 10</tspan></text>
	</g>
</g>
<g fill="none" color="black" stroke="currentColor" stroke-width="1.00" stroke-linecap="butt" stroke-linejoin="miter">
	<path stroke='black'  d='M180.5,428.0 L180.5,419.0 M180.5,18.1 L180.5,27.1  '/>	<g transform="translate(180.5,449.9)" stroke="none" fill="black" font-family="Arial" font-size="12.00"  text-anchor="middle">
		<text><tspan font-family="Arial" > 20</tspan></text>
	</g>
</g>
<g fill="none" color="black" stroke="currentColor" stroke-width="1.00" stroke-linecap="butt" stroke-linejoin="miter">
	<path stroke='black'  d='M235.5,428.0 L235.5,419.0 M235.5,18.1 L235.5,27.1  '/>	<g transform="translate(235.5,449.9)" stroke="none" fill="black" font-family="Arial" font-size="12.00"  text-anchor="middle">
		<text><tspan font-family="Arial" > 30</tspan></text>
	</g>
</g>
<g fill="none" color="black" stroke="currentColor" stroke-width="1.00" stroke-linecap="butt" stroke-linejoin="miter">
	<path stroke='black'  d='M290.5,428.0 L290.5,419.0 M290.5,18.1 L290.5,27.1  '/>	<g transform="translate(290.5,449.9)" stroke="none" fill="black" font-family="Arial" font-size="12.00"  text-anchor="middle">
		<text><tspan font-family="Arial" > 40</tspan></text>
	</g>
</g>
<g fill="none" color="black" stroke="currentColor" stroke-width="1.00" stroke-linecap="butt" stroke-linejoin="miter">
	<path stroke='black'  d='M345.5,428.0 L345.5,419.0 M345.5,18.1 L345.5,27.1  '/>	<g transform="translate(345.5,449.9)" stroke="none" fill="black" font-family="Arial" font-size="12.00"  text-anchor="middle">
		<text><tspan font-family="Arial" > 50</tspan></text>
	</g>
</g>
<g fill="none" color="black" stroke="currentColor" stroke-width="1.00" stroke-linecap="butt" stroke-linejoin="miter">
	<path stroke='black'  d='M400.5,428.0 L400.5,419.0 M400.5,18.1 L400.5,27.1  '/>	<g transform="translate(400.5,449.9)" stroke="none" fill="black" font-family="Arial" font-size="12.00"  text-anchor="middle">
		<text><tspan font-family="Arial" > 60</tspan></text>
	</g>
</g>
<g fill="none" color="black" stroke="currentColor" stroke-width="1.00" stroke-linecap="butt" stroke-linejoin="miter">
	<path stroke='black'  d='M455.5,428.0 L455.5,419.0 M455.5,18.1 L455.5,27.1  '/>	<g transform="translate(455.5,449.9)" stroke="none" fill="black" font-family="Arial" font-size="12.00"  text-anchor="middle">
		<text><tspan font-family="Arial" > 70</tspan></text>
	</g>
</g>
<g fill="none" color="black" stroke="currentColor" stroke-width="1.00" stroke-linecap="butt" stroke-linejoin="miter">
	<path stroke='black'  d='M510.5,428.0 L510.5,419.0 M510.5,18.1 L510.5,27.1  '/>	<g transform="translate(510.5,449.9)" stroke="none" fill="black" font-family="Arial" font-size="12.00"  text-anchor="middle">
		<text><tspan font-family="Arial" > 80</tspan></text>
	</g>
</g>
<g fill="none" color="black" stroke="currentColor" stroke-width="1.00" stroke-linecap="butt" stroke-linejoin="miter">
	<path stroke='black'  d='M565.5,428.0 L565.5,419.0 M565.5,18.1 L565.5,27.1  '/>	<g transform="translate(565.5,449.9)" stroke="none" fill="black" font-family="Arial" font-size="12.00"  text-anchor="middle">
		<text><tspan font-family="Arial" > 90</tspan></text>
	</g>
</g>
<g fill="none" color="black" stroke="currentColor" stroke-width="1.00" stroke-linecap="butt" stroke-linejoin="miter">
</g>
<g fill="none" color="black" stroke="currentColor" stroke-width="1.00" stroke-linecap="butt" stroke-linejoin="miter">
	<path stroke='black'  d='M70.5,18.1 L70.5,428.0 L615.0,428.0 L615.0,18.1 L70.5,18.1 Z  '/></g>
<g fill="none" color="black" stroke="currentColor" stroke-width="1.00" stroke-linecap="butt" stroke-linejoin="miter">
</g>
	<g id="gnuplot_plot_1" ><title>pages</title>
<g fill="none" color="black" stroke="currentColor" stroke-width="1.00" stroke-linecap="butt" stroke-linejoin="miter">
	<g transform="translate(283.9,467.9)" stroke="none" fill="black" font-family="Arial" font-size="12.00"  text-anchor="end">
		<text><tspan font-family="Arial" >pages</tspan></text>
	</g>
</g>
<g fill="none" color="black" stroke="currentColor" stroke-width="1.00" stroke-linecap="butt" stroke-linejoin="miter">
	<path stroke='rgb(148,   0, 211)'  d='M292.2,464.0 L334.4,464.0 M70.5,405.2 L76.0,405.2 L81.5,405.1 L87.0,405.1 L92.5,405.1 L98.0,405.0
		L103.5,404.9 L109.0,404.9 L114.5,404.8 L120.0,404.7 L125.5,404.6 L131.0,404.6 L136.5,404.4 L142.0,404.4
		L147.5,404.4 L153.0,404.2 L158.5,404.2 L164.0,404.2 L169.5,404.1 L175.0,404.0 L180.5,404.0 L186.0,403.8
		L191.5,403.7 L197.0,403.4 L202.5,403.2 L208.0,400.3 L213.5,400.2 L219.0,399.0 L224.5,395.3 L230.0,395.0
		L235.5,394.9 L241.0,394.9 L246.5,394.8 L252.0,394.8 L257.5,394.8 L263.0,394.7 L268.5,394.7 L274.0,394.6
		L279.5,394.4 L285.0,394.4 L290.5,394.3 L296.0,394.3 L301.5,394.3 L307.0,394.2 L312.5,394.2 L318.0,394.2
		L323.5,394.2 L329.0,394.2 L334.5,394.2 L340.0,394.2 L345.5,394.1 L351.0,394.1 L356.5,394.0 L362.0,394.0
		L367.5,394.0 L373.0,393.9 L378.5,393.7 L384.0,393.7 L389.5,393.7 L395.0,393.7 L400.5,393.6 L406.0,393.6
		L411.5,393.5 L417.0,393.4 L422.5,393.3 L428.0,393.3 L433.5,393.3 L439.0,393.3 L444.5,393.3 L450.0,393.3
		L455.5,393.1 L461.0,393.0 L466.5,393.0 L472.0,392.9 L477.5,392.4 L483.0,392.4 L488.5,392.4 L494.0,392.4
		L499.5,392.4 L505.0,392.4 L510.5,392.3 L516.0,392.0 L521.5,391.9 L527.0,391.9 L532.5,391.7 L538.0,391.6
		L543.5,391.1 L549.0,390.7 L554.5,390.4 L560.0,390.4 L565.5,389.8 L571.0,389.7 L576.5,389.3 L582.0,387.3
		L587.5,385.9 L593.0,385.2 L598.5,385.1 L604.0,382.5 L609.5,122.8 L615.0,26.0  '/></g>
	</g>
	<g id="gnuplot_plot_2" ><title>pages+cached</title>
<g fill="none" color="black" stroke="currentColor" stroke-width="1.00" stroke-linecap="butt" stroke-linejoin="miter">
	<g transform="translate(283.9,485.9)" stroke="none" fill="black" font-family="Arial" font-size="12.00"  text-anchor="end">
		<text><tspan font-family="Arial" >pages+cached</tspan></text>
	</g>
</g>
<g fill="none" color="black" stroke="currentColor" stroke-width="1.00" stroke-linecap="butt" stroke-linejoin="miter">
	<path stroke='rgb(  0, 158, 115)'  d='M292.2,482.0 L334.4,482.0 M70.5,420.1 L76.0,420.1 L81.5,420.1 L87.0,420.0 L92.5,420.0 L98.0,420.0
		L103.5,420.0 L109.0,419.9 L114.5,419.9 L120.0,419.9 L125.5,419.9 L131.0,419.9 L136.5,419.8 L142.0,419.8
		L147.5,419.7 L153.0,419.7 L158.5,419.7 L164.0,419.7 L169.5,419.7 L175.0,419.7 L180.5,419.6 L186.0,419.6
		L191.5,419.6 L197.0,419.6 L202.5,419.6 L208.0,419.6 L213.5,419.5 L219.0,419.5 L224.5,419.5 L230.0,419.5
		L235.5,419.4 L241.0,419.4 L246.5,419.4 L252.0,419.4 L257.5,419.4 L263.0,419.4 L268.5,419.4 L274.0,419.4
		L279.5,419.3 L285.0,419.3 L290.5,419.2 L296.0,419.2 L301.5,419.1 L307.0,419.1 L312.5,419.1 L318.0,419.1
		L323.5,419.0 L329.0,419.0 L334.5,419.0 L340.0,419.0 L345.5,419.0 L351.0,418.7 L356.5,418.7 L362.0,418.5
		L367.5,418.5 L373.0,418.5 L378.5,418.4 L384.0,418.4 L389.5,418.4 L395.0,418.3 L400.5,418.3 L406.0,418.3
		L411.5,418.2 L417.0,418.1 L422.5,418.1 L428.0,417.9 L433.5,417.9 L439.0,417.9 L444.5,417.8 L450.0,417.6
		L455.5,417.0 L461.0,416.9 L466.5,410.2 L472.0,410.2 L477.5,410.1 L483.0,410.0 L488.5,409.9 L494.0,409.8
		L499.5,409.8 L505.0,409.7 L510.5,409.7 L516.0,409.7 L521.5,409.3 L527.0,409.3 L532.5,409.3 L538.0,409.3
		L543.5,409.2 L549.0,409.1 L554.5,409.0 L560.0,409.0 L565.5,408.9 L571.0,408.8 L576.5,408.7 L582.0,408.4
		L587.5,408.4 L593.0,408.3 L598.5,408.2 L604.0,401.0 L609.5,400.9 L615.0,396.5  '/></g>
	</g>
	<g id="gnuplot_plot_3" ><title>score p10=3387</title>
<g fill="none" color="black" stroke="currentColor" stroke-width="1.00" stroke-linecap="butt" stroke-linejoin="miter">
	<g transform="translate(483.8,467.9)" stroke="none" fill="black" font-family="Arial" font-size="12.00"  text-anchor="end">
		<text><tspan font-family="Arial" >score p10=3387</tspan></text>
	</g>
</g>
<g fill="none" color="black" stroke="currentColor" stroke-width="1.00" stroke-linecap="butt" stroke-linejoin="miter">
	<path stroke='rgb( 86, 180, 233)'  d='M492.1,464.0 L534.3,464.0  '/></g>
	</g>
	<g id="gnuplot_plot_4" ><title>score median=5800</title>
<g fill="none" color="black" stroke="currentColor" stroke-width="1.00" stroke-linecap="butt" stroke-linejoin="miter">
	<g transform="translate(483.8,485.9)" stroke="none" fill="black" font-family="Arial" font-size="12.00"  text-anchor="end">
		<text><tspan font-family="Arial" >score median=5800</tspan></text>
	</g>
</g>
<g fill="none" color="black" stroke="currentColor" stroke-width="1.00" stroke-linecap="butt" stroke-linejoin="miter">
	<path stroke='rgb(230, 159,   0)'  d='M492.1,482.0 L534.3,482.0 M70.5,395.0 L76.0,395.0 L81.5,395.0 L87.0,395.0 L92.5,395.0 L98.0,395.0
		L103.5,395.0 L109.0,395.0 L114.5,395.0 L120.0,395.0 L125.5,395.0 L131.0,395.0 L136.5,395.0 L142.0,395.0
		L147.5,395.0 L153.0,395.0 L158.5,395.0 L164.0,395.0 L169.5,395.0 L175.0,395.0 L180.5,395.0 L186.0,395.0
		L191.5,395.0 L197.0,395.0 L202.5,395.0 L208.0,395.0 L213.5,395.0 L219.0,395.0 L224.5,395.0 L230.0,395.0
		L235.5,395.0 L241.0,395.0 L246.5,395.0 L252.0,395.0 L257.5,395.0 L263.0,395.0 L268.5,395.0 L274.0,395.0
		L279.5,395.0 L285.0,395.0 L290.5,395.0 L296.0,395.0 L301.5,395.0 L307.0,395.0 L312.5,395.0 L318.0,395.0
		L323.5,395.0 L329.0,395.0 L334.5,395.0 L340.0,395.0 L345.5,395.0 L351.0,395.0 L356.5,395.0 L362.0,395.0
		L367.5,395.0 L373.0,395.0 L378.5,395.0 L384.0,395.0 L389.5,395.0 L395.0,395.0 L400.5,395.0 L406.0,395.0
		L411.5,395.0 L417.0,395.0 L422.5,395.0 L428.0,395.0 L433.5,395.0 L439.0,395.0 L444.5,395.0 L450.0,395.0
		L455.5,395.0 L461.0,395.0 L466.5,395.0 L472.0,395.0 L477.5,395.0 L483.0,395.0 L488.5,395.0 L494.0,395.0
		L499.5,395.0 L505.0,395.0 L510.5,395.0 L516.0,395.0 L521.5,395.0 L527.0,395.0 L532.5,395.0 L538.0,395.0
		L543.5,395.0 L549.0,395.0 L554.5,395.0 L560.0,395.0 L565.5,395.0 L571.0,395.0 L576.5,395.0 L582.0,395.0
		L587.5,395.0 L593.0,395.0 L598.5,395.0 L604.0,395.0 L609.5,395.0 L615.0,395.0  '/></g>
	</g>
<g fill="none" color="#FFFFFF" stroke="rgb(230, 159,   0)" stroke-width="2.00" stroke-linecap="butt" stroke-linejoin="miter">
</g>
<g fill="none" color="black" stroke="currentColor" stroke-width="2.00" stroke-linecap="butt" stroke-linejoin="miter">
</g>
<g fill="none" color="black" stroke="black" stroke-width="1.00" stroke-linecap="butt" stroke-linejoin="miter">
</g>
<g fill="none" color="black" stroke="currentColor" stroke-width="1.00" stroke-linecap="butt" stroke-linejoin="miter">
	<path stroke='black'  d='M70.5,18.1 L70.5,428.0 L615.0,428.0 L615.0,18.1 L70.5,18.1 Z  '/></g>
<g fill="none" color="black" stroke="currentColor" stroke-width="1.00" stroke-linecap="butt" stroke-linejoin="miter">
</g>
</g>
</svg>
